X: 1271
T: Kulağımdan Gitmiyor Ninni Sesin
C: Özcan Korkut
O: Turkey
F: http://compmusic.upf.edu/node/140
N: hicazkar--sarki--duyek--kulagimdan_gitmiyor--ozcan_korkut
N: makam= hicazkar
N: form= sarki
N: usul= duyek = 8/4
M: 8/4
L: 1/16
K: C _1/4B _7/8e _7/8A ^f
Q: 1/4=156
%%MIDI tuningsystem comma53
z2 g2 f2 e2 g4 g3/2f/ g2  | z2 g2 f2 e2 g4 g3/2f/ g2  | \
w:   |   | 
z2 d2 e2 f2 g2 fe f2 ed  | 
w:   | 
e2 dc d2 cB cB cd ed e2  | z2 Bc BA AG G2 zG AF G2  | 
w:   |   | 
z2 Bc BA AG G2 zG AF G2  | z2 g2 f2 e2 g4 g3/2f/ g2  | 
w:   |   | 
z2 g2 f2 e2 g4 g3/2f/ g2  | z2 d2 e2 f2 g2 fe f2 ed  | \
w:   |   | 
e2 dc d2 cB cB cd ed e2  | 
w:   | 
z2 Bc BA AG G2 zG AF G2  | z2 Bc BA AG G2 AB cd ef  | 
w:   |   | 
g4 g2 g2 g4 =a4  | z2 _b4 =ag f4 z4  | \
w:  *  Ku la ğım dan   |  git mi *  yor   | 
z2 g4 fe e4 ed e2  | z2 f4 ed d3f ed c2  | 
w:  nin *  *  ni  SAZ  |  nin *  *  ni  SAZ  | 
z2 g4 fe e4 e2 fg  | fe d4 de df ed cB c2  | \
w:  nin *  *  ni   |  se *  sin   SAZ  | 
d2 e4 dc c2 cd e3/2d/ c2  | 
w:  İ çim de *  sin  SAZ  | 
d2 e4 dc c3c BA G2  | G2 c4 d2 _1/4e2 =f2 g2 =ag  | \
w:  i çim de *  sin  SAZ  |  i çim *  den   | 
g2 g4 =f2 gf _1/4ee e3f  | 
w:  de rin  | 
=f_1/4e d4 _ed cB cd ed e^f  | g2 a4 ag f4 g4  | \
w:  de *  sin   SAZ  |  *  Gör dü *  ğüm  her   | 
g3f e4 gf ef ed e2  | 
w:  şey *  de  SAZ  | 
d2 f2 e2 d2 e2 f2 g4  | z2 d4 f2 e3d c2 cB  | \
w:  *  her  *  *  şey *  de   |  sev di ğim *  *  de  | 
c6 cd e3/2d/ cd e4  | 
w:  sin   SAZ  | 
z2 e4 ed dc cB B4  | z2 c4 e2 d2 c4 B2  | \
w:  An la *  tıl *  *  *  maz   |  öy le  gü zel   | 
cB A2 A2 G2 G4 e3/2d/ e2  | 
w:  bir  *  *  şey *  sin   SAZ  | 
z2 e8-e2 (3f2e2f2  | g2 g14  | ag a2 a2 ag f4 g3f  | \
w:  Ah   |  *  ah   |  *  *  *  gö zü *  mün  nû  | 
ed e6 f4 g4  | 
w:  ru  *  *  an nem    | 
z2 a4 ag f4 g2 gf  | ed e6 f4 g4  | g2 a4 a2 a3g f2 g2  | \
w:  Öm rü *  mün  gü ne  |  şi  *  *  an nem    |  Şu  kal bi min  *  a te  | 
ag a4 bc' ba gf g4  | 
w:  şi  *  *  *  *  an *  *  *  nem    | 
g2 g4 fe e3d c2 c2  | d4 e4 f4 g4  | \
w:  A yır ma *  sın  *  se ni   |  Al lah  ben den    | 
g2 g4 fe e3d c2 c2  | B4 c4 BA AG G4  | 
w:  A yır ma *  sın  *  se ni   |  Al lah  ben *  *  *  den    | 
g2 g4 fe e3d c2 c2  | d4 e4 f4 g4  | \
w:  A yır ma *  sın  *  se ni   |  Al lah  ben den    | 
g2 g4 fe e3d c2 c2  | B4 c4 BA AG G4  | 
w:  A yır ma *  sın  *  se ni   |  Al lah  ben *  *  *  den    | 
z2 g2 f2 e2 g4 g3/2f/ g2  | z2 g2 f2 e2 g4 g3/2f/ g2  | \
w:   |   | 
z2 d2 e2 f2 g2 fe f2 ed  | 
w:   | 
e2 dc d2 cB cB cd ed e2  | z2 Bc BA AG G2 zG AF G2  | 
w:   |   | 
z2 Bc BA AG G2 zG AF G2  | z2 g2 f2 e2 g4 g3/2f/ g2  | 
w:   |   | 
z2 g2 f2 e2 g4 g3/2f/ g2  | z2 d2 e2 f2 g2 fe f2 ed  | \
w:   |   | 
e2 dc d2 cB cB cd ed e2  | 
w:   | 
z2 Bc BA AG G2 zG AF G2  | z2 Bc BA AG G2 AB cd ef  | 
w:   |   | 
g4 g2 g2 g4 =a4  | z2 _b4 =ag f4 z4  | \
w:  *  Ku la ğım dan   |  git mi *  yor   | 
z2 g4 fe e4 ed e2  | z2 f4 ed d3f ed c2  | 
w:  nin *  *  ni  SAZ  |  nin *  *  ni  SAZ  | 
z2 g4 fe e4 e2 fg  | fe d4 de df ed cB c2  | \
w:  nin *  *  ni   |  se *  sin   SAZ  | 
d2 e4 dc c2 cd e3/2d/ c2  | 
w:  İ çim de *  sin  SAZ  | 
d2 e4 dc c3c BA G2  | G2 c4 d2 _1/4e2 =f2 g2 =ag  | \
w:  i çim de *  sin  SAZ  |  i çim *  den   | 
g2 g4 =f2 gf _1/4ee e3f  | 
w:  de rin  | 
=f_1/4e d4 _ed cB cd ed e^f  | g2 a4 ag f4 g4  | \
w:  de *  sin   SAZ  |  *  Gör dü *  ğüm  her   | 
g3f e4 gf ef ed e2  | 
w:  şey *  de  SAZ  | 
d2 f2 e2 d2 e2 f2 g4  | z2 d4 f2 e3d c2 cB  | \
w:  *  her  *  *  şey *  de   |  sev di ğim *  *  de  | 
c6 cd e3/2d/ cd e4  | 
w:  sin   SAZ  | 
z2 e4 ed dc cB B4  | z2 c4 e2 d2 c4 B2  | \
w:  An la *  tıl *  *  *  maz   |  öy le  gü zel   | 
cB A2 A2 G2 G4 e3/2d/ e2  | 
w:  bir  *  *  şey *  sin   SAZ  | 
z2 e8-e2 (3f2e2f2  | g2 g14  | ag a2 a2 ag f4 g3f  | \
w:  Ah   |  *  ah   |  *  *  *  gö zü *  mün  nû  | 
ed e6 f4 g4  | 
w:  ru  *  *  an nem    | 
z2 a4 ag f4 g2 gf  | ed e6 f4 g4  | g2 a4 a2 a3g f2 g2  | \
w:  Öm rü *  mün  gü ne  |  şi  *  *  an nem    |  Şu  kal bi min  *  a te  | 
ag a4 bc' ba gf g4  | 
w:  şi  *  *  *  *  an *  *  *  nem    | 
g2 g4 fe e3d c2 c2  | d4 e4 f4 g4  | \
w:  A yır ma *  sın  *  se ni   |  Al lah  ben den    | 
g2 g4 fe e3d c2 c2  | B4 c4 BA AG G4  | 
w:  A yır ma *  sın  *  se ni   |  Al lah  ben *  *  *  den    | 
g2 g4 fe e3d c2 c2  | d4 e4 f4 g4  | \
w:  A yır ma *  sın  *  se ni   |  Al lah  ben den    | 
g2 g4 fe e3d c2 c2  | B4 c4 BA AG G4  | 
w:  A yır ma *  sın  *  se ni   |  Al lah  ben *  *  *  den    | 
|


